public/images/logos/sass.svg

<svg width="28" height="28" viewBox="0 0 28 28" fill="none" xmlns="http://www.w3.org/2000/svg">
<g clip-path="url(#clip0_123_10)">
<path d="M24.0953 15.5641C23.1164 15.5696 22.2687 15.8047 21.5578 16.1548C21.2953 15.6352 21.0328 15.1813 20.9891 14.8423C20.9399 14.4485 20.8797 14.2078 20.9399 13.7376C21 13.2672 21.2734 12.6 21.2734 12.5453C21.2679 12.4961 21.2132 12.2555 20.65 12.25C20.0868 12.2446 19.6 12.3594 19.5453 12.5071C19.4906 12.6547 19.3812 12.9938 19.3101 13.3438C19.2117 13.8578 18.1836 15.6789 17.5984 16.636C17.407 16.2641 17.2429 15.936 17.2101 15.6734C17.1609 15.2797 17.1007 15.039 17.1609 14.5688C17.2211 14.0984 17.4945 13.4313 17.4945 13.3766C17.489 13.3274 17.4344 13.0867 16.8711 13.0813C16.3078 13.0758 15.8211 13.1906 15.7664 13.3383C15.7118 13.486 15.6516 13.836 15.5313 14.175C15.4164 14.5141 14.0492 17.5547 13.6937 18.3477C13.5133 18.7524 13.3547 19.075 13.2398 19.2938C13.125 19.5125 13.2344 19.3102 13.2234 19.3321C13.125 19.518 13.0703 19.6219 13.0703 19.6219V19.6274C12.9937 19.7641 12.9117 19.8953 12.8734 19.8953C12.846 19.8953 12.7913 19.5289 12.8843 19.0259C13.0866 17.9703 13.5788 16.3243 13.5734 16.2641C13.5734 16.2368 13.6663 15.9469 13.2562 15.7993C12.857 15.6516 12.7148 15.8977 12.682 15.8977C12.6491 15.8977 12.6218 15.9852 12.6218 15.9852C12.6218 15.9852 13.0648 14.1314 11.7741 14.1314C10.9648 14.1314 9.84914 15.0119 9.2968 15.8158C8.9468 16.0072 8.20305 16.4118 7.41555 16.8439C7.11477 17.0079 6.80305 17.1829 6.50774 17.3415L6.44763 17.2758C4.88357 15.6078 1.9906 14.4266 2.11092 12.1844C2.15467 11.3696 2.43904 9.22034 7.66722 6.61721C11.9493 4.4844 15.3782 5.06956 15.9742 6.37112C16.8219 8.23049 14.1422 11.6867 9.69066 12.1844C7.99535 12.3758 7.10388 11.7196 6.87972 11.4735C6.64456 11.2164 6.61175 11.2055 6.52425 11.2547C6.38206 11.3313 6.46956 11.561 6.52425 11.6977C6.6555 12.0422 7.20238 12.6547 8.13206 12.961C8.94685 13.2289 10.9375 13.3766 13.3438 12.4469C16.0399 11.4024 18.1453 8.50393 17.5274 6.08128C16.8985 3.61487 12.8078 2.80549 8.94144 4.17815C6.63904 4.99846 4.14529 6.27815 2.35154 7.95706C0.218728 9.94768 -0.120335 11.6867 0.0218528 12.4086C0.519564 14.9844 4.06873 16.6633 5.4906 17.9047C5.41951 17.9429 5.35388 17.9812 5.29373 18.0141C4.58279 18.364 1.87576 19.7805 1.19763 21.2789C0.432009 22.9742 1.31795 24.1938 1.90857 24.3578C3.73513 24.8664 5.60545 23.9532 6.61717 22.4492C7.62336 20.9453 7.5031 18.993 7.03826 18.1016L7.0218 18.0688L7.57961 17.7407C7.9406 17.5274 8.29607 17.3305 8.60774 17.1609C8.43279 17.6367 8.30695 18.2 8.24138 19.0203C8.16482 19.9828 8.55857 21.2297 9.0781 21.7218C9.30779 21.9351 9.58123 21.9406 9.75076 21.9406C10.3523 21.9406 10.6258 21.4429 10.9265 20.8468C11.2984 20.1195 11.6265 19.2773 11.6265 19.2773C11.6265 19.2773 11.2164 21.5578 12.3375 21.5578C12.7476 21.5578 13.1578 21.0273 13.3437 20.7539V20.7593C13.3437 20.7593 13.3547 20.7429 13.3765 20.7047C13.3995 20.6707 13.4214 20.6361 13.4422 20.6008V20.5899C13.6062 20.3055 13.9726 19.6547 14.5195 18.5774C15.2249 17.1883 15.9031 15.4492 15.9031 15.4492C15.9031 15.4492 15.9687 15.8758 16.1711 16.5758C16.2913 16.9915 16.5538 17.4453 16.7562 17.8883C16.5921 18.118 16.4937 18.2493 16.4937 18.2493L16.4991 18.2548C16.3679 18.4298 16.2202 18.6158 16.0672 18.8016C15.5094 19.4688 14.8422 20.229 14.7547 20.4478C14.6508 20.7048 14.6726 20.8962 14.875 21.0494C15.0226 21.1587 15.2851 21.1806 15.564 21.1587C16.0672 21.1259 16.4172 21.0001 16.5922 20.9235C16.8656 20.8251 17.1773 20.6774 17.4781 20.4587C18.025 20.054 18.3586 19.4798 18.3258 18.7142C18.3094 18.2931 18.1726 17.8775 18.0031 17.4837C18.0523 17.4126 18.1016 17.3415 18.1508 17.265C19.0148 16.0016 19.682 14.6126 19.682 14.6126C19.682 14.6126 19.7476 15.0392 19.95 15.7392C20.0538 16.0947 20.2617 16.483 20.4476 16.8658C19.6383 17.5275 19.1297 18.2932 18.9547 18.7963C18.632 19.726 18.8836 20.1471 19.3594 20.2455C19.5726 20.2893 19.8789 20.1908 20.1085 20.0924C20.3929 19.9994 20.7374 19.8408 21.0547 19.6057C21.6015 19.201 22.1265 18.6377 22.0992 17.8775C22.0828 17.5275 21.9898 17.183 21.864 16.8549C22.5531 16.5705 23.4445 16.4064 24.5765 16.5432C27.0101 16.8275 27.4914 18.3478 27.3985 18.9822C27.3055 19.6167 26.7969 19.9666 26.6273 20.076C26.4578 20.1799 26.4031 20.2182 26.4195 20.2947C26.4414 20.4096 26.5179 20.4041 26.6656 20.3823C26.8679 20.3494 27.9453 19.8627 27.989 18.6925C28.0547 17.1884 26.6273 15.5477 24.0953 15.5641ZM5.32654 21.8914C4.52263 22.7719 3.3906 23.1055 2.90935 22.8211C2.38982 22.5203 2.59211 21.2242 3.58201 20.2891C4.18357 19.7203 4.9656 19.1953 5.47966 18.8727C5.59451 18.8016 5.76951 18.6977 5.97732 18.5719C6.01013 18.5501 6.03201 18.5391 6.03201 18.5391C6.07029 18.5172 6.11404 18.4899 6.15779 18.4625C6.5242 19.7969 6.1742 20.9672 5.32654 21.8914ZM11.2054 17.8938C10.9265 18.5774 10.3359 20.3328 9.98045 20.2344C9.67414 20.1524 9.48826 18.8235 9.92024 17.511C10.139 16.8492 10.6038 16.0617 10.8773 15.7554C11.3203 15.2633 11.8015 15.0992 11.9219 15.3015C12.064 15.5641 11.3804 17.4672 11.2054 17.8938ZM16.0562 20.2125C15.9359 20.2727 15.8265 20.3164 15.7773 20.2837C15.739 20.2618 15.8265 20.1798 15.8265 20.1798C15.8265 20.1798 16.4335 19.529 16.6741 19.2282C16.8109 19.0533 16.9749 18.8509 17.1499 18.6212V18.6868C17.15 19.4742 16.3953 19.9992 16.0562 20.2125ZM19.7968 19.3594C19.7093 19.2938 19.7203 19.0914 20.0155 18.4571C20.1304 18.2055 20.3929 17.7844 20.8468 17.3852C20.9015 17.5492 20.9344 17.7078 20.9288 17.8555C20.9234 18.8399 20.2234 19.2063 19.7968 19.3594Z" fill="#CF649A"/>
</g>
<defs>
<clipPath id="clip0_123_10">
<rect width="28" height="21" fill="white" transform="translate(0 3.5)"/>
</clipPath>
</defs>
</svg>

<svg xmlns="http://www.w3.org/2000/svg" width="28" height="28" fill="none" xmlns:v="https://vecta.io/nano"><g clip-path="url(#A)"><path d="M24.095 15.564c-.979.005-1.827.241-2.538.591-.262-.52-.525-.974-.569-1.313-.049-.394-.109-.634-.049-1.105s.333-1.138.333-1.192c-.005-.049-.06-.29-.623-.295s-1.05.109-1.105.257-.164.487-.235.837c-.098.514-1.126 2.335-1.712 3.292-.191-.372-.356-.7-.388-.963-.049-.394-.109-.634-.049-1.105s.334-1.137.334-1.192c-.005-.049-.06-.29-.623-.295s-1.05.109-1.105.257-.115.498-.235.837c-.115.339-1.482 3.38-1.838 4.173l-.454.946c-.115.219-.005.016-.016.038l-.153.29v.006c-.077.137-.159.268-.197.268-.027 0-.082-.366.011-.869.202-1.056.694-2.702.689-2.762 0-.027.093-.317-.317-.465-.399-.148-.541.098-.574.098s-.06.088-.06.088.443-1.854-.848-1.854c-.809 0-1.925.881-2.477 1.684l-1.881 1.028-.908.498-.06-.066c-1.564-1.668-4.457-2.849-4.337-5.091.044-.815.328-2.964 5.556-5.567 4.282-2.133 7.711-1.548 8.307-.246.848 1.859-1.832 5.316-6.284 5.813-1.695.191-2.587-.465-2.811-.711-.235-.257-.268-.268-.355-.219-.142.077-.055.306 0 .443.131.345.678.957 1.608 1.263.815.268 2.805.416 5.212-.514 2.696-1.044 4.801-3.943 4.184-6.366-.629-2.466-4.72-3.276-8.586-1.903-2.302.82-4.796 2.1-6.59 3.779C.219 9.948-.12 11.687.022 12.409c.498 2.576 4.047 4.255 5.469 5.496l-.197.109c-.711.35-3.418 1.766-4.096 3.265-.766 1.695.12 2.915.711 3.079 1.827.509 3.697-.405 4.709-1.909 1.006-1.504.886-3.456.421-4.348l-.016-.033.558-.328 1.028-.58c-.175.476-.301 1.039-.366 1.859-.077.963.317 2.209.837 2.702.23.213.503.219.673.219.602 0 .875-.498 1.176-1.094.372-.727.7-1.57.7-1.57s-.41 2.281.711 2.281c.41 0 .82-.53 1.006-.804v.005s.011-.016.033-.055l.066-.104v-.011l1.077-2.012c.705-1.389 1.384-3.128 1.384-3.128a9.97 9.97 0 0 0 .268 1.127c.12.416.383.869.585 1.313l-.262.361.005.005-.432.547-1.312 1.646c-.104.257-.082.448.12.602.148.109.41.131.689.109.503-.033.853-.159 1.028-.235a3.56 3.56 0 0 0 .886-.465 1.97 1.97 0 0 0 .848-1.744c-.016-.421-.153-.837-.323-1.231l.148-.219c.864-1.263 1.531-2.652 1.531-2.652a9.97 9.97 0 0 0 .268 1.127c.104.355.312.744.498 1.127-.809.662-1.318 1.427-1.493 1.93-.323.93-.071 1.351.405 1.449.213.044.52-.055.749-.153.284-.093.629-.252.946-.487.547-.405 1.072-.968 1.044-1.728-.016-.35-.109-.695-.235-1.023.689-.284 1.581-.448 2.712-.312 2.434.284 2.915 1.805 2.822 2.439s-.602.984-.771 1.094c-.17.104-.224.142-.208.219.022.115.098.109.246.088.202-.033 1.28-.52 1.323-1.69.066-1.504-1.362-3.145-3.894-3.128zM5.327 21.891c-.804.88-1.936 1.214-2.417.93-.52-.301-.317-1.597.673-2.532.602-.569 1.384-1.094 1.898-1.416l.498-.301.055-.033.126-.077c.366 1.334.016 2.505-.831 3.429zm5.879-3.998c-.279.684-.869 2.439-1.225 2.341-.306-.082-.492-1.411-.06-2.723.219-.662.684-1.449.957-1.756.443-.492.924-.656 1.045-.454.142.263-.542 2.166-.717 2.592zm4.851 2.319c-.12.06-.23.104-.279.071-.038-.022.049-.104.049-.104l.848-.952.476-.607v.066c0 .787-.755 1.312-1.094 1.526zm3.741-.853c-.088-.066-.076-.268.219-.902.115-.252.377-.673.831-1.072a1.35 1.35 0 0 1 .082.47c-.005.984-.705 1.351-1.132 1.504z" fill="#cf649a"/></g><defs><clipPath id="A"><path fill="#fff" transform="translate(0 3.5)" d="M0 0h28v21H0z"/></clipPath></defs></svg>
